public/icons/support.svg

<svg height="96" viewBox="0 0 64 64" width="96" xmlns="http://www.w3.org/2000/svg" xmlns:xlink="http://www.w3.org/1999/xlink"><linearGradient id="a"><stop offset="0" stop-color="#1a6dff"/><stop offset="1" stop-color="#c822ff"/></linearGradient><linearGradient id="b" gradientUnits="userSpaceOnUse" spreadMethod="reflect" x1="32" x2="32" xlink:href="#a" y1="5.333" y2="59.507"/><linearGradient id="c" gradientUnits="userSpaceOnUse" spreadMethod="reflect" x1="45" x2="45" xlink:href="#a" y1="5.333" y2="59.507"/><linearGradient id="d" gradientUnits="userSpaceOnUse" spreadMethod="reflect" x1="27" x2="27" xlink:href="#a" y1="5.333" y2="59.507"/><linearGradient id="e" gradientUnits="userSpaceOnUse" spreadMethod="reflect" x1="29" x2="29" xlink:href="#a" y1="5.333" y2="59.507"/><linearGradient id="f" gradientUnits="userSpaceOnUse" spreadMethod="reflect" x1="31" x2="31" xlink:href="#a" y1="5.333" y2="59.507"/><linearGradient id="g" gradientUnits="userSpaceOnUse" spreadMethod="reflect" x1="29" x2="29" xlink:href="#a" y1="5.335" y2="59.506"/><linearGradient id="h" gradientUnits="userSpaceOnUse" spreadMethod="reflect" x1="16" x2="16" y1="25.834" y2="36.835"><stop offset="0" stop-color="#6dc7ff"/><stop offset="1" stop-color="#e6abff"/></linearGradient><path d="m58 19.001a12.89 12.89 0 0 0 -3.985-9.366 12.897 12.897 0 0 0 -9.521-3.624c-6.745.256-12.228 5.739-12.484 12.484-.007.169.006.505.006.505h-10.016c-8.822 0-16 7.178-16 16 0 8.667 6.927 15.746 15.535 15.993l5.097 5.927c.572.686 1.435 1.08 2.368 1.08s1.796-.394 2.357-1.067l5.107-5.939c8.609-.248 15.536-7.327 15.536-15.994 0-1.01-.1-2-.287-3h6.287zm-8 15.999c0 7.72-6.28 14-14 14h-.459l-5.71 6.641c-.381.457-1.27.47-1.673-.013l-5.699-6.628h-.459c-7.72 0-14-6.28-14-14s6.28-14 14-14h10.157c.402 3 1.592 5.057 3.477 7.016a12.89 12.89 0 0 0 9.366 3.984h4.673c.213 1 .327 1.987.327 3zm6-5h-11a10.908 10.908 0 0 1 -7.926-3.372 10.92 10.92 0 0 1 -3.066-8.057c.213-5.611 4.951-10.35 10.562-10.563a10.915 10.915 0 0 1 8.058 3.066 10.912 10.912 0 0 1 3.372 7.927z" fill="url(#b)"/><path d="m45 23a2 2 0 1 0 0 4 2 2 0 1 0 0-4z" fill="url(#c)"/><path d="m24 26h6v2h-6z" fill="url(#d)"/><path d="m24 30h10v2h-10z" fill="url(#e)"/><path d="m24 34h14v2h-14z" fill="url(#f)"/><path d="m12 38h34v2h-34z" fill="url(#g)"/><path d="m19 42h20v2h-20z" fill="url(#e)"/><path d="m45 12c-2.206 0-4 2-4 4h2c0-1 .897-2 2-2s2 .897 2 2-.897 2-2 2h-1v3h2v-1.126c1-.444 3-2.013 3-3.873a4.004 4.004 0 0 0 -4-4.001z" fill="url(#c)"/><path d="m20 36h-8v-2a8 8 0 0 1 8-8z" fill="url(#h)"/></svg>

<svg xmlns="http://www.w3.org/2000/svg"  viewBox="0 0 64 64" width="96px" height="96px"><linearGradient id="mcwB~XdTp9tq2ylZRSm3ma" x1="32" x2="32" y1="5.333" y2="59.507" gradientUnits="userSpaceOnUse" spreadMethod="reflect"><stop offset="0" stop-color="#1a6dff"/><stop offset="1" stop-color="#c822ff"/></linearGradient><path fill="url(#mcwB~XdTp9tq2ylZRSm3ma)" d="M58,19.001c0-3.566-1.415-6.892-3.985-9.366c-2.569-2.473-5.962-3.766-9.521-3.624 c-6.745,0.256-12.228,5.739-12.484,12.484C32.003,18.664,32.016,19,32.016,19H22c-8.822,0-16,7.178-16,16 c0,8.667,6.927,15.746,15.535,15.993l5.097,5.927C27.204,57.606,28.067,58,29,58c0.933,0,1.796-0.394,2.357-1.067l5.107-5.939 C45.073,50.746,52,43.667,52,35c0-1.01-0.1-2-0.287-3H58V19.001z M50,35c0,7.72-6.28,14-14,14h-0.459l-5.71,6.641 c-0.381,0.457-1.27,0.47-1.673-0.013L22.459,49H22c-7.72,0-14-6.28-14-14s6.28-14,14-14h10.157c0.402,3,1.592,5.057,3.477,7.016 C38.107,30.585,41.433,32,45,32h4.673C49.886,33,50,33.987,50,35z M56,30H45c-3.018,0-5.832-1.197-7.926-3.372 c-2.092-2.173-3.181-5.035-3.066-8.057C34.221,12.96,38.959,8.221,44.57,8.008c0.145-0.005,0.289-0.008,0.433-0.008 c2.862,0,5.556,1.083,7.625,3.074C54.803,13.169,56,15.983,56,19.001V30z"/><linearGradient id="mcwB~XdTp9tq2ylZRSm3mb" x1="45" x2="45" y1="5.333" y2="59.507" gradientUnits="userSpaceOnUse" spreadMethod="reflect"><stop offset="0" stop-color="#1a6dff"/><stop offset="1" stop-color="#c822ff"/></linearGradient><path fill="url(#mcwB~XdTp9tq2ylZRSm3mb)" d="M45 23A2 2 0 1 0 45 27A2 2 0 1 0 45 23Z"/><linearGradient id="mcwB~XdTp9tq2ylZRSm3mc" x1="27" x2="27" y1="5.333" y2="59.507" gradientUnits="userSpaceOnUse" spreadMethod="reflect"><stop offset="0" stop-color="#1a6dff"/><stop offset="1" stop-color="#c822ff"/></linearGradient><path fill="url(#mcwB~XdTp9tq2ylZRSm3mc)" d="M24 26H30V28H24z"/><linearGradient id="mcwB~XdTp9tq2ylZRSm3md" x1="29" x2="29" y1="5.333" y2="59.507" gradientUnits="userSpaceOnUse" spreadMethod="reflect"><stop offset="0" stop-color="#1a6dff"/><stop offset="1" stop-color="#c822ff"/></linearGradient><path fill="url(#mcwB~XdTp9tq2ylZRSm3md)" d="M24 30H34V32H24z"/><linearGradient id="mcwB~XdTp9tq2ylZRSm3me" x1="31" x2="31" y1="5.333" y2="59.507" gradientUnits="userSpaceOnUse" spreadMethod="reflect"><stop offset="0" stop-color="#1a6dff"/><stop offset="1" stop-color="#c822ff"/></linearGradient><path fill="url(#mcwB~XdTp9tq2ylZRSm3me)" d="M24 34H38V36H24z"/><linearGradient id="mcwB~XdTp9tq2ylZRSm3mf" x1="29" x2="29" y1="5.335" y2="59.506" gradientUnits="userSpaceOnUse" spreadMethod="reflect"><stop offset="0" stop-color="#1a6dff"/><stop offset="1" stop-color="#c822ff"/></linearGradient><path fill="url(#mcwB~XdTp9tq2ylZRSm3mf)" d="M12 38H46V40H12z"/><linearGradient id="mcwB~XdTp9tq2ylZRSm3mg" x1="29" x2="29" y1="5.333" y2="59.507" gradientUnits="userSpaceOnUse" spreadMethod="reflect"><stop offset="0" stop-color="#1a6dff"/><stop offset="1" stop-color="#c822ff"/></linearGradient><path fill="url(#mcwB~XdTp9tq2ylZRSm3mg)" d="M19 42H39V44H19z"/><linearGradient id="mcwB~XdTp9tq2ylZRSm3mh" x1="45" x2="45" y1="5.333" y2="59.507" gradientUnits="userSpaceOnUse" spreadMethod="reflect"><stop offset="0" stop-color="#1a6dff"/><stop offset="1" stop-color="#c822ff"/></linearGradient><path fill="url(#mcwB~XdTp9tq2ylZRSm3mh)" d="M45,12c-2.206,0-4,2-4,4h2c0-1,0.897-2,2-2s2,0.897,2,2s-0.897,2-2,2h-1v3h2v-1.126 c1-0.444,3-2.013,3-3.873C49,13.794,47.206,12,45,12z"/><linearGradient id="mcwB~XdTp9tq2ylZRSm3mi" x1="16" x2="16" y1="25.834" y2="36.835" gradientUnits="userSpaceOnUse" spreadMethod="reflect"><stop offset="0" stop-color="#6dc7ff"/><stop offset="1" stop-color="#e6abff"/></linearGradient><path fill="url(#mcwB~XdTp9tq2ylZRSm3mi)" d="M20,36h-8v-2c0-4.418,3.582-8,8-8h0V36z"/></svg>
